X:0333
M:6/8
L:1/8
Q:3/8=120
K:D
  DED dcd|AGF EFG|FAF GEA|FDD D2:|
  ded fga|bag fed|BAB d2B|AFD D2:|

